other/wulkanowy.svg

<?xml version="1.0" encoding="UTF-8" standalone="no"?>
<svg
   viewBox="0 0 48 48"
   version="1.1"
   id="svg8"
   xmlns="http://www.w3.org/2000/svg"
   xmlns:svg="http://www.w3.org/2000/svg">
  <defs
     id="defs4">
    <style
       id="style2">.a{fill:none;stroke:#fff;stroke-linecap:round;stroke-linejoin:round;}</style>
  </defs>
  <path
     class="a"
     d="m 42.497255,42.499797 h -6.750199 l -4.343997,-5.776222 -1.841412,-6.184735 -5.554383,-2.810223 -0.934459,-4.112502 -1.689479,-2.458537 1.406689,-2.73078 2.202237,-0.05601 2.077878,-1.247604 5.219504,10.145756 0.397958,3.709674 9.812198,10.891042 z"
     id="path952" />
  <path
     class="a"
     d="m 29.308873,42.499797 h -9.675994 l -2.690696,-6.412406 2.186482,-5.236957 -1.603286,-3.286265 2.408309,-4.631135 0.597149,0.186226 2.47502,7.106898 4.495331,1.529419 2.177939,6.346371 z"
     id="path954" />
  <path
     class="a"
     d="m 16.259652,40.55431 -1.482297,1.945487 H 5.4999587 L 11.301861,33.423384 13.89468,22.1389 17.365382,19.915693 c 0,0 -0.0238,-1.918368 0.184365,-2.258263 0.281225,-0.459101 1.587828,-0.27892 1.587828,-0.27892 0.299225,0.153619 0.537029,0.607606 0.414936,0.921668 l -3.555324,9.145657 0.841392,4.336672 -2.072979,4.496358 z"
     id="path956" />
  <path
     class="a"
     d="m 21.00145,16.254075 c 0.453122,-1.03431 0.104213,-1.354097 0.104213,-1.354097 -2.192964,-0.451583 -3.798451,-3.550286 -0.742819,-5.2122832 -0.389987,-0.9208664 0.787601,-1.6474164 1.542395,-1.5505562 0.481952,-0.7308631 0.879025,-0.8524647 1.593168,-0.6103903 1.45859,-2.0133673 3.617522,-1.9197639 6.496059,-1.3401595 2.495838,-1.7345822 4.189963,0.1692896 3.741286,1.4659443 2.363929,0.3982374 1.592518,3.5034939 -0.254126,3.0838839 0.0062,0.801929 -0.323195,1.243135 -1.18826,1.108568 -0.625043,1.967787 -2.679584,2.56884 -5.963506,1.994496 -0.259598,0.651634 -0.695879,0.851986 -1.271193,0.697187 -0.03617,0.943438 -0.126321,1.85875 -2.50838,1.581077 0.04413,0.03645 -0.244019,0.804603 -0.902692,0.788359 -0.498382,-0.01224 -0.833301,-0.224806 -0.646135,-0.652029 z"
     id="path3005" />
</svg>

<svg xmlns="http://www.w3.org/2000/svg" viewBox="0 0 48 48"><defs><style>.a{fill:none;stroke:#fff;stroke-linecap:round;stroke-linejoin:round;}</style></defs><path class="a" d="M42.4934,42.5H35.7447l-4.3431-5.775-1.841-6.1834-5.5532-2.81L23.0731,23.62l-1.6891-2.458,1.4064-2.73,2.2018-.056L27.07,17.1289,32.288,27.2724l.3978,3.7089,9.81,10.8887Z"/><path class="a" d="M29.3079,42.5h-9.674l-2.69-6.411,2.186-5.2359-1.6029-3.2855,2.4078-4.63.597.1862,2.4745,7.1054,4.4944,1.5291,2.1774,6.345Z"/><path class="a" d="M16.2614,40.5549,14.78,42.5H5.5041l5.8006-9.0745,2.5923-11.282,3.47-2.2227a9.4139,9.4139,0,0,1,.1844-2.2578c.2811-.459,1.5874-.2789,1.5874-.2789a.8406.8406,0,0,1,.4149.9215L15.999,27.4493,16.84,31.785,14.7677,36.28Z"/><path class="a" d="M21.0022,16.26c.453-1.0341.1042-1.3538.1042-1.3538-2.1925-.4515-3.7976-3.5495-.7426-5.2111-.39-.9207.7874-1.6471,1.542-1.55.4819-.7307.8789-.8522,1.5928-.61,1.4583-2.013,3.6168-1.9194,6.4947-1.34,2.4953-1.7342,4.1891.1693,3.7405,1.4656,2.3634.3982,1.5922,3.5028-.2541,3.0833.0062.8017-.3231,1.2428-1.188,1.1083-.6249,1.9674-2.679,2.5683-5.9622,1.9941a.9748.9748,0,0,1-1.2709.697c-.0362.9432-.1263,1.8583-2.5079,1.5807a.974.974,0,0,1-.9025.7882C21.15,16.9,20.8151,16.6871,21.0022,16.26Z"/></svg>
